images_breeze_svg/cmd/32/editstyle.svg

<svg viewBox="0 0 32 32" xmlns="http://www.w3.org/2000/svg"><path d="m7.9980469 4v2h7.0000001v14h2v-14h7v-2zm20.0000001 11-.175781.095703a1.0006264 1.0006264 0 0 1 .175781.105469zm-2.212891 1.199219-21.785156 11.800781h2.0976562 11.9023438v-1h-10.0566406l15.3593746-8.318359zm2.212891 7.818359-1 1.001953v1.980469h-1.980469l-1 1h3.980469v-1z" fill="#4d4d4d"/><path d="m27.398438 16-5.111328 5.111328-3.28711 3.285156v3.603516h3.603516l8.396484-8.398438zm-2.048828 3.490234 2.162109 2.160157-3.175781 3.175781v-.675781l-1.011719.02148h-1.037109v-1.035156-.585938l1.441406-1.439453zm-4.074219 4.074219v1.621094h1.035156.990235l.02148.652344-1.080078 1.082031h-1.441406l-.71875-.720703v-1.441407z" fill="#f47750"/></svg>

<?xml version="1.0" encoding="UTF-8" standalone="no"?>
<svg
   xmlns:dc="http://purl.org/dc/elements/1.1/"
   xmlns:cc="http://creativecommons.org/ns#"
   xmlns:rdf="http://www.w3.org/1999/02/22-rdf-syntax-ns#"
   xmlns:svg="http://www.w3.org/2000/svg"
   xmlns="http://www.w3.org/2000/svg"
   xmlns:sodipodi="http://sodipodi.sourceforge.net/DTD/sodipodi-0.dtd"
   xmlns:inkscape="http://www.inkscape.org/namespaces/inkscape"
   viewBox="0 0 32 32"
   version="1.1"
   id="svg6"
   sodipodi:docname="editstyle.svg"
   inkscape:version="0.92.4 (unknown)"
   inkscape:export-filename="/home/rizmut/Dokumen/Rizmut/Github/libreoffice-style-breeze/images_breeze/cmd/32/editstyle.png"
   inkscape:export-xdpi="96"
   inkscape:export-ydpi="96">
  <metadata
     id="metadata12">
    <rdf:RDF>
      <cc:Work
         rdf:about="">
        <dc:format>image/svg+xml</dc:format>
        <dc:type
           rdf:resource="http://purl.org/dc/dcmitype/StillImage" />
        <dc:title></dc:title>
      </cc:Work>
    </rdf:RDF>
  </metadata>
  <defs
     id="defs10" />
  <sodipodi:namedview
     pagecolor="#ffffff"
     bordercolor="#666666"
     borderopacity="1"
     objecttolerance="10"
     gridtolerance="10"
     guidetolerance="10"
     inkscape:pageopacity="0"
     inkscape:pageshadow="2"
     inkscape:window-width="1360"
     inkscape:window-height="714"
     id="namedview8"
     showgrid="true"
     inkscape:snap-global="false"
     inkscape:zoom="11.313709"
     inkscape:cx="13.733354"
     inkscape:cy="7.0485117"
     inkscape:window-x="0"
     inkscape:window-y="28"
     inkscape:window-maximized="1"
     inkscape:current-layer="svg6">
    <inkscape:grid
       type="xygrid"
       id="grid822" />
  </sodipodi:namedview>
  <path
     style="fill:#4d4d4d"
     d="M 7.9980469 4 L 7.9980469 6 L 14.998047 6 L 14.998047 20 L 16.998047 20 L 16.998047 6 L 23.998047 6 L 23.998047 4 L 7.9980469 4 z M 27.998047 15 L 27.822266 15.095703 A 1.0006264 1.0006264 0 0 1 27.998047 15.201172 L 27.998047 15 z M 25.785156 16.199219 L 4 28 L 6.0976562 28 L 18 28 L 18 27 L 7.9433594 27 L 23.302734 18.681641 L 25.785156 16.199219 z M 27.998047 24.017578 L 26.998047 25.019531 L 26.998047 27 L 25.017578 27 L 24.017578 28 L 27.998047 28 L 27.998047 27 L 27.998047 24.017578 z "
     id="path2" />
  <path
     inkscape:connector-curvature="0"
     style="fill:#f47750;fill-opacity:1"
     d="M 27.398438,16 22.28711,21.111328 19,24.396484 V 28 h 3.603516 L 31,19.601562 Z m -2.048828,3.490234 2.162109,2.160157 -3.175781,3.175781 v -0.675781 l -1.011719,0.02148 H 22.28711 v -1.035156 -0.585938 l 1.441406,-1.439453 z m -4.074219,4.074219 v 1.621094 h 1.035156 0.990235 l 0.02148,0.652344 -1.080078,1.082031 h -1.441406 l -0.71875,-0.720703 v -1.441407 z"
     id="path2-9"
     sodipodi:nodetypes="ccccccccccccccccccccccccccc" />
</svg>
